X: 1
T:Radio Shetland
C:Steven Spence
S:collection Stephan Steiner
Z:abc transcription Simon Wascher
N:please mail errors to: simon.wascher@chello.at
M:2/4
L:1/16
K:G
GA|B2BG A2AF|GAGE D2GA|B2BG ABAF|A<d-d2 d3D|
G2AG F2AF|EFGE D2GA|B2BG ABAF|D<G-G2G2:|
|:Bc|d2dB G2GD|EDEG D2GA|B2BG ABAF|A<d-d2 d3D|
G2AG F2AF|EFGE D2GA|B2BG ABAF|D<G-G2G2:|
